icons/4_Outdated/Star Wars The Old Republic v1.svg

<svg width="1024" height="1024" viewBox="0 0 1024 1024" fill="none" xmlns="http://www.w3.org/2000/svg">
<g clip-path="url(#clip0_3_686)">
<path d="M512 1024C794.77 1024 1024 794.77 1024 512C1024 229.23 794.77 0 512 0C229.23 0 0 229.23 0 512C0 794.77 229.23 1024 512 1024Z" fill="#F9DE81"/>
<path d="M391.689 519.78L353.999 648.44H316.219L299.679 587.54L281.049 648.44H242.449L204.449 519.78H251.839L263.839 562.67L274.999 519.78H324.749L337.619 562.67L350.489 519.78H391.689ZM732.809 519.78H819.499V558.38H763.939C756.219 558.38 747.819 559.28 757.009 567.85L773.009 586.85C783.549 598.71 783.379 603.67 783.379 612.64C783.379 634.94 761.319 648.42 746.739 648.42L645.399 649.1C631.399 649.1 630.579 648.24 620.279 638.81C609.979 629.38 590.279 606.22 590.279 606.22V649.1H543.999V520.49H635.159C651.459 520.49 671.799 538.23 671.799 559.06C671.799 579.89 659.419 600.23 645.449 600.23C649.975 604.248 655.827 606.45 661.879 606.41H711.799C714.339 606.41 739.609 610.63 722.709 595.26C704.169 578.41 702.129 564.38 701.509 553.26C700.889 542.14 710.519 519.78 732.819 519.78H732.809ZM619.709 553.06H590.309V576.22H619.709C635.519 576.21 633.189 553.06 619.709 553.06ZM363.149 467.7C363.149 458.7 366.579 452.88 356.039 441.01L340.039 422.01C330.849 413.43 341.139 413.43 348.859 413.43H401.859V503.49H443.859V413.42H500.469V374.85H317.069C294.769 374.85 283.859 396.27 284.479 407.42C285.099 418.57 287.149 432.6 305.679 449.42C322.579 464.79 297.309 460.57 294.769 460.57H204.499V503.46H329.939C344.519 503.48 363.149 490 363.149 467.7ZM819.499 460.6V503.49H746.779C732.779 503.49 731.959 502.63 721.659 493.2C711.359 483.77 691.659 460.61 691.659 460.61V503.5H645.329V374.85H736.489C752.789 374.85 773.129 392.59 773.129 413.42C773.129 434.25 760.749 454.59 746.779 454.59C746.779 454.59 746.779 460.59 763.079 460.59L819.499 460.6ZM721.049 407.42H691.649V430.58H721.049C736.859 430.58 734.529 407.42 721.049 407.42ZM488.949 520.52L524.949 649.15H483.559L476.939 631.15H432.339L425.479 649.15H383.209L421.209 520.52H488.949ZM470.079 600.26L456.359 553.09L441.779 600.26H470.079ZM581.249 485.47H536.649L529.789 503.47H487.519L525.519 374.84H593.279L629.279 503.47H587.869L581.249 485.47ZM574.389 454.59L560.669 407.42L546.089 454.59H574.389Z" fill="white"/>
</g>
<defs>
<clipPath id="clip0_3_686">
<rect width="1024" height="1024" fill="white"/>
</clipPath>
</defs>
</svg>

<svg xmlns="http://www.w3.org/2000/svg" width="1024" height="1024" fill="none">
   <g clip-path="url(#a)">
      <path fill="#F9DE81" d="M512 1024c282.77 0 512-229.23 512-512S794.77 0 512 0 0 229.23 0 512s229.23 512 512 512Z"/>
      <path fill="#fff" d="m391.689 519.78-37.69 128.66h-37.78l-16.54-60.9-18.63 60.9h-38.6l-38-128.66h47.39l12 42.89 11.16-42.89h49.75l12.87 42.89 12.87-42.89h41.2Zm341.12 0h86.69v38.6h-55.56c-7.72 0-16.12.9-6.93 9.47l16 19c10.54 11.86 10.37 16.82 10.37 25.79 0 22.3-22.06 35.78-36.64 35.78l-101.34.68c-14 0-14.82-.86-25.12-10.29s-30-32.59-30-32.59v42.88h-46.28V520.49h91.16c16.3 0 36.64 17.74 36.64 38.57 0 20.83-12.38 41.17-26.35 41.17a24.504 24.504 0 0 0 16.43 6.18h49.92c2.54 0 27.81 4.22 10.91-11.15-18.54-16.85-20.58-30.88-21.2-42-.62-11.12 9.01-33.48 31.31-33.48h-.01Zm-113.1 33.28h-29.4v23.16h29.4c15.81-.01 13.48-23.16 0-23.16Zm-256.56-85.36c0-9 3.43-14.82-7.11-26.69l-16-19c-9.19-8.58 1.1-8.58 8.82-8.58h53v90.06h42v-90.07h56.61v-38.57h-183.4c-22.3 0-33.21 21.42-32.59 32.57.62 11.15 2.67 25.18 21.2 42 16.9 15.37-8.37 11.15-10.91 11.15h-90.27v42.89h125.44c14.58.02 33.21-13.46 33.21-35.76Zm456.35-7.1v42.89h-72.72c-14 0-14.82-.86-25.12-10.29s-30-32.59-30-32.59v42.89h-46.33V374.85h91.16c16.3 0 36.64 17.74 36.64 38.57 0 20.83-12.38 41.17-26.35 41.17 0 0 0 6 16.3 6l56.42.01Zm-98.45-53.18h-29.4v23.16h29.4c15.81 0 13.48-23.16 0-23.16Zm-232.1 113.1 36 128.63h-41.39l-6.62-18h-44.6l-6.86 18h-42.27l38-128.63h67.74Zm-18.87 79.74-13.72-47.17-14.58 47.17h28.3Zm111.17-114.79h-44.6l-6.86 18h-42.27l38-128.63h67.76l36 128.63h-41.41l-6.62-18Zm-6.86-30.88-13.72-47.17-14.58 47.17h28.3Z"/>
   </g>
   <defs>
      <clipPath id="a">
         <path fill="#fff" d="M0 0h1024v1024H0z"/>
      </clipPath>
   </defs>
</svg>
